X:1
T:Title
%%score { ( 1 3 ) | ( 2 4 ) }
L:1/8
M:3/4
K:D
V:1 treble nm="Grand Piano"
V:3 treble 
V:2 bass 
V:4 bass 
V:1
 z2 z2[Q:1/4=92] D2 | F>E D3 F | [FA]>[GB] [FA]3 [FA] | B3 B dd |[M:2/4] [FA]4 |[M:1/4] D2 | %6
[M:3/4] F>E D3 F | [FA]>[GB] [FA]3 [=FB] | [Ec]3 [Fd] [Ec][DB] |[M:2/4] [CA]4 |[M:1/4] Bc | %11
[M:3/4] [Fd]2 [FA]2 [DF][FA] | [GB]2 [FA]4 | [Fd]3 [Fd] [FA][DF] |[M:2/4] [CE]4 |[M:1/4] DE | %16
[M:3/4] F2 [FA]2 [GB][Gc] |[M:7/8] [Fe]2 [Fd]3 [Ac]B |[M:3/4] A3 F [CG]>[CE] |[M:2/4] D4 |] %20
V:2
 z2 z2 [D,F,]2 | [D,A,D]>[D,G,C] [D,F,]3 [D,A,D] | [D,D]>[D,D] [D,D]3 [D,D] | %3
 [G,DG]3 [G,DG] [G,B,G][G,^A,G] |[M:2/4][K:bass] [D,A,]4 |[M:1/4] [D,F,]2 | %6
[M:3/4] [D,A,D]>[E,A,C] [F,A,]3 [D,A,D] | [D,D]>[D,D] [D,D]3 [D,A,] | %8
 [E,A,]3 [E,A,] [E,^G,][E,G,] |[M:2/4] [A,,A,]4 |[M:1/4][K:treble] [A,G][A,G] | %11
[M:3/4][K:bass] [D,A,]2 [D,D]2 [D,A,][D,D] | [G,D]2 [D,D]4 | [D,A,]3 [D,A,] [D,A,][D,A,] | %14
[M:2/4] A,2 z2 |[M:1/4] [D,F,][D,G,D] |[M:3/4] [D,A,D]2 [D,D]2 [G,D][E,A,] | %17
[M:7/8] [D,A,]2 [D,A,]3 [F,D][K:treble][G,DG] |[M:3/4] [A,DF]3[K:bass] [A,D] [A,,E,]>[A,,G,] | %19
[M:2/4] [D,F,]4 |] %20
V:3
 x6 | x6 | x6 | x6 |[M:2/4] x4 |[M:1/4] x2 |[M:3/4] x6 | x6 | x6 |[M:2/4] x4 |[M:1/4] x2 | %11
[M:3/4] x6 | x6 | x6 |[M:2/4] z2 G,2 |[M:1/4] x2 |[M:3/4] x6 |[M:7/8] x7 |[M:3/4] x6 |[M:2/4] x4 |] %20
V:4
 x6 | x6 | x6 | x6 |[M:2/4][K:bass] x4 |[M:1/4] x2 |[M:3/4] x6 | x6 | x6 |[M:2/4] x4 | %10
[M:1/4][K:treble] x2 |[M:3/4][K:bass] x6 | x6 | x6 |[M:2/4] A,,4 |[M:1/4] x2 |[M:3/4] x6 | %17
[M:7/8] x6[K:treble] x |[M:3/4] x3[K:bass] x3 |[M:2/4] x4 |] %20

